X:1
T:My Bonnie Lies Over the Ocean
C:Traditional
M:3/4
L:1/4
Q:1/4=100
K:G
B | d d d | e d c | B3 | B2 B | c d e | d2 c | B3 | c d e | d2 c | B A G | A3 | B d d | d2 d | e d c | d3 |]
w: My | bon-nie lies o- | ver the o-cean | my bon-nie lies | o-ver the sea | my bon-nie lies | o-ver the o- | cean oh bring | back my bon-nie | to me bring back | bring back oh | bring back my | bon-nie to | me to | me
